X:325
T:Mckenzie Highlanders 
C:Joe Buchanan's Scottish Tome - Page 010.1
I:010 1
R:March
Z:Carl Allison
L:1/8
M:2/4
K:A mixolydian
d | "A" cB/c/ A/B/c/d/ | "A" eA Aa | "A" cB/c/ A/B/c/d/ | "A" (e2 e)f/a/ |
"A" cB/c/ A/B/c/d/ | "A" eA A=g | "G" BA/=G/ =gB/G/ | "G" (d2 {e}d) :|
e/f/ | "A" ac/A/ ef/d/ | "A" eA Af/g/ | "A" ac/A/ ef/d/ | "A" (e2 e)g |
"A" ac/A/ ef/d/ | "A" eA A=g | "G" BA/=G/ =gB/G/ | "G" d2 "E"ef/g/ |
"A" ac/A/ ef/d/ | "A" eA Ag | "A" ac/A/ ef/d/ | "A" (e2 e)f/g/ |
"A" a=g/f/ gf/e/ | "A" fe/d/ e=g | "G" BA/=G/ =gB/G/ | "G" (d2 {e}d) |]

